svgs/instagram.svg

<svg width="192" height="192" viewBox="0 0 192 192" fill="none" xmlns="http://www.w3.org/2000/svg"><path d="M96 162c-14.152 0-24.336-.007-32.276-.777-7.849-.761-12.87-2.223-16.877-4.741a36 36 0 0 1-11.33-11.329c-2.517-4.007-3.98-9.028-4.74-16.877C30.007 120.336 30 110.152 30 96c0-14.152.007-24.336.777-32.276.76-7.849 2.223-12.87 4.74-16.877a36 36 0 0 1 11.33-11.33c4.007-2.517 9.028-3.98 16.877-4.74C71.663 30.007 81.847 30 96 30c14.152 0 24.336.007 32.276.777 7.849.76 12.87 2.223 16.877 4.74a36 36 0 0 1 11.329 11.33c2.518 4.007 3.98 9.028 4.741 16.877.77 7.94.777 18.124.777 32.276 0 14.152-.007 24.336-.777 32.276-.761 7.849-2.223 12.87-4.741 16.877a36 36 0 0 1-11.329 11.329c-4.007 2.518-9.028 3.98-16.877 4.741-7.94.77-18.124.777-32.276.777Z" stroke="#000" stroke-width="12"/><circle cx="96" cy="96" r="30" stroke="#000" stroke-width="12"/><circle cx="135" cy="57" r="9" fill="#000"/></svg>

<?xml version="1.0" encoding="UTF-8" standalone="no"?><svg xmlns:android="http://schemas.android.com/apk/res/android" height="192" width="192" xmlns="http://www.w3.org/2000/svg">
  <path d="M96,162C81.848,162 71.664,161.993 63.723,161.223C55.875,160.462 50.854,159 46.847,156.482C42.268,153.605 38.395,149.732 35.518,145.153C33,141.146 31.538,136.125 30.777,128.276C30.007,120.336 30,110.152 30,96C30,81.848 30.007,71.664 30.777,63.723C31.538,55.875 33,50.854 35.518,46.847C38.395,42.268 42.268,38.395 46.847,35.518C50.854,33 55.875,31.538 63.723,30.777C71.664,30.007 81.848,30 96,30C110.152,30 120.336,30.007 128.276,30.777C136.125,31.538 141.146,33 145.153,35.518C149.732,38.395 153.605,42.268 156.482,46.847C159,50.854 160.462,55.875 161.223,63.723C161.993,71.664 162,81.848 162,96C162,110.152 161.993,120.336 161.223,128.276C160.462,136.125 159,141.146 156.482,145.153C153.605,149.732 149.732,153.605 145.153,156.482C141.146,159 136.125,160.462 128.276,161.223C120.336,161.993 110.152,162 96,162Z" fill="#000000" fill-opacity="0.0" stroke="#000000" stroke-width="12"/>
  <path d="M96,96m-30,0a30,30 0,1 1,60 0a30,30 0,1 1,-60 0" fill="#000000" fill-opacity="0.0" stroke="#000000" stroke-width="12"/>
  <path d="M135,57m-9,0a9,9 0,1 1,18 0a9,9 0,1 1,-18 0" fill="#000000"/>
</svg>
